X:479
T: Allerlei Hausrat (188), S. 410
N: T0367
O: Luxemburg
S: Singendes Volk, Esch-Alzette, 1937 posth.]
N: Reuland, fff Katharina Prim, 1907
R: Hochzeits-, Ehestandslied]
M: 2/4
L: 1/8
K: G
 | DGGG2 | FGAA |
DAAA | GAB2 |
GBdd | eedd |
ccBB | AAG2

@@@ Tune index: 8533
